ion/megaphone-sharp.svg

<svg viewBox="0 0 512 512" xmlns="http://www.w3.org/2000/svg"><g><path d="M128 144v332 0c0 2.2 1.79 4 4 4h100.07v0c4.41 0 8-3.58 8-8 0-.58-.07-1.15-.19-1.71l-31.18-118.3h23.29v0c4.41 0 8-3.59 8-8v-200Z"/><path d="M452.18 186.55L448 185.5V36v0c0-2.21-1.8-4-4-4h-42.5v0c-.97 0-1.91.35-2.63 1L272 144v160l126.87 111v0c.72.64 1.66.99 2.63 1H444v0c2.2 0 4-1.8 4-4V262.5l4.18-1.05C461.8 258.84 480 247.67 480 224c0-23.67-18.2-34.84-27.82-37.45Z"/><path d="M96 144H52v0c-2.21 0-4 1.79-4 4v35.59l-.001-.001c-1.52 1.34-2.94 2.8-4.24 4.35 -5.36 6.38-11.76 17.8-11.76 36.06 0 20.19 7.89 33.13 16 40.42v35.58 0c0 2.2 1.79 4 4 4h44Z"/></g></svg>

<svg xmlns="http://www.w3.org/2000/svg" width="512" height="512" viewBox="0 0 512 512"><path d="M128,144V476a4,4,0,0,0,4,4H232.07a8,8,0,0,0,7.82-9.7L208.71,352H232a8,8,0,0,0,8-8V144Z"/><path d="M452.18,186.55,448,185.5V36a4,4,0,0,0-4-4H401.5a4,4,0,0,0-2.63,1L272,144V304L398.87,415a4,4,0,0,0,2.63,1H444a4,4,0,0,0,4-4V262.5l4.18-1.05C461.8,258.84,480,247.67,480,224S461.8,189.16,452.18,186.55Z"/><path d="M96,144H52a4,4,0,0,0-4,4v35.59a43,43,0,0,0-4.24,4.35C38.4,194.32,32,205.74,32,224c0,20.19,7.89,33.13,16,40.42V300a4,4,0,0,0,4,4H96Z"/></svg>
